X: 8
T:Si j'avais un bon ami
R:Bourre  2 temps
C:Trad.
O:France
A:Centre
S:80 airs  danser du centre France - La Chavanne - 1991
S:08
Z:Transcrit et/ou corrig par Michel BELLON - 2005-05-16
Z:Pour toute observation mailto:galouvielle@free.fr
M:2/4
L:1/8
K:Eb
c>d ec | d=B c2 | ef ge | gf d2 | c>d ec | d=B c2 | ef ge | gf d2 ||
e>f ga | gf d2 | fe c2 | d=B G2 | e>f ga | gf d2 | fe cd | c=Bc2 |]
%%footer $D   Galouvielle-MBe 2005 \nBourre  2 temps France
